public/avatar/shoe/116.svg

<svg xmlns:xlink="http://www.w3.org/1999/xlink" height="38.3" width="36.05" xmlns="http://www.w3.org/2000/svg"><use height="26.3" transform="translate(12 2.35)" width="19.95" xlink:href="#a"/><defs><g id="a" fill-rule="evenodd"><path d="m.5-12.25 1.9.55Q8.7-9.85 7.9-6l-.35 1.75Q7.4-2.95 7.4-.8L7.7.65l.05.35-.45 1.15-.05.05.15 1.1.05.15.7 3.5Q8.15 8.5 7 9l-1.05.5q-4.8 3.55-8.15 4.05-3.15.5-6.05-.1-2.85-.7-3.35-2l-.2-1.15q0-1 .7-2.35l.55-.75q1.5-2.15 3.3-3.8l2.2-2.25L-6-5.2-6.55-8l.25-1.25q1.8-4.2 6.8-3" fill="#1e1c26" transform="translate(11.8 12.5)"/><path d="m1.9-10.85 3.3 1.5Q6.95-8.2 6.9-6.1l-.45 3.15Q6.2-1 6.7.95l-.45 1.1.2 1.6q1.2 4.1.2 4.5-5 3.9-9.2 4.55l-5.7-.15q-2.5-.5-2.8-1.3-.4-1.1.45-2.8 6.35-6.45 6.5-7Q-4 .9-5.7-8.8q2.65-4.15 7.6-2.05" fill="#232330" transform="translate(11.8 12.5)"/><path d="M-5.7-8.8q1-2.7 4.1-2.75 2.4-.05 3.65 1 .45.35.75 6.3.35 5.8.15 6.75-.3 1.15-4.8 6-3.25 4.15-8.85.75Q-4.25 2-4.1 1.45-4 .9-5.7-8.8" fill="#3d3d4c" transform="translate(11.8 12.5)"/><path d="m-6.65 10.75-2.2-.3q-2.25-.5-2-1.45.35-1 6.6-7.45-1.8-9.8-1.6-10.15l.15.8Q-3.55 1.15-4 1.7l-3.2 3.5Q-9.95 8.4-9.6 9q.6 1.4 2.95 1.75" fill="#a9aeb1" transform="translate(11.8 12.5)"/><path d="M6.45 1.4 6 2.25q-3.75 1.4-7.8.9L-4.05 2l.35-.35.35.4q.55.45 1.65.5 4 .2 8.15-1.15" fill="#1e1c26" transform="translate(11.8 12.5)"/><path d="M-2.35-10.45Q-.55-11.2 0-3.7q.4 5.75-1.55 5.9-1.25 0-1.9-5.65-.75-6.15 1.1-7" fill="#232330" transform="translate(11.8 12.5)"/><path d="M-3.1-3.8q-.25-5.8.8-5.65.25 0 .75 1.95.6 2.15.7 3.9.1 5-.9 5-.35 0-.85-2.35l-.5-2.85" fill="#626277" transform="translate(11.8 12.5)"/><path d="M-2.3-9.35q.25.55-.05 4.4-.35 4 .6 6.35-1.1 0-1.35-5.2-.15-2.4.15-4.05l.45-1.4q0-.5.2-.1" fill="#a9aeb1" transform="translate(11.8 12.5)"/><path d="M6.9-6.45 6.45.25q.25 1-1.75 1.4 1-.25 1.2-1.2.65-3.4.5-8.8.5.55.5 1.9M6.4 4.4l.05.05q.7 2.3.5 2.85-.25.85-2.4 1.25 2-1.25 1.95-2L6.4 4.4" fill="#3d3d4c" transform="translate(11.8 12.5)"/></g></defs></svg>

<?xml version="1.0" encoding="UTF-8" standalone="no"?>
<svg xmlns:xlink="http://www.w3.org/1999/xlink" height="38.3px" width="36.05px" xmlns="http://www.w3.org/2000/svg">
  <g transform="matrix(1.0, 0.0, 0.0, 1.0, 23.8, 14.85)">
    <use height="26.3" transform="matrix(1.0, 0.0, 0.0, 1.0, -11.8, -12.5)" width="19.95" xlink:href="#shape0"/>
  </g>
  <defs>
    <g id="shape0" transform="matrix(1.0, 0.0, 0.0, 1.0, 11.8, 12.5)">
      <path d="M0.5 -12.25 L2.4 -11.7 Q8.7 -9.85 7.9 -6.0 L7.55 -4.25 Q7.4 -2.95 7.4 -0.8 L7.7 0.65 7.75 1.0 7.3 2.15 7.25 2.2 7.4 3.3 7.45 3.45 8.15 6.95 Q8.15 8.5 7.0 9.0 L5.95 9.5 Q1.15 13.05 -2.2 13.55 -5.35 14.05 -8.25 13.45 -11.1 12.75 -11.6 11.45 L-11.8 10.3 Q-11.8 9.3 -11.1 7.95 L-10.55 7.2 Q-9.05 5.05 -7.25 3.4 L-5.05 1.15 -6.0 -5.2 -6.55 -8.0 -6.3 -9.25 Q-4.5 -13.45 0.5 -12.25" fill="#1e1c26" fill-rule="evenodd" stroke="none"/>
      <path d="M1.9 -10.85 L5.2 -9.35 Q6.95 -8.2 6.9 -6.1 L6.45 -2.95 Q6.2 -1.0 6.7 0.95 L6.25 2.05 6.45 3.65 Q7.65 7.75 6.65 8.15 1.65 12.05 -2.55 12.7 L-8.25 12.55 Q-10.75 12.05 -11.05 11.25 -11.45 10.15 -10.6 8.45 -4.25 2.0 -4.1 1.45 -4.0 0.9 -5.7 -8.8 -3.05 -12.95 1.9 -10.85" fill="#232330" fill-rule="evenodd" stroke="none"/>
      <path d="M-5.7 -8.8 Q-4.7 -11.5 -1.6 -11.55 0.8 -11.6 2.05 -10.55 2.5 -10.2 2.8 -4.25 3.15 1.55 2.95 2.5 2.65 3.65 -1.85 8.5 -5.1 12.65 -10.7 9.25 -4.25 2.0 -4.1 1.45 -4.0 0.9 -5.7 -8.8" fill="#3d3d4c" fill-rule="evenodd" stroke="none"/>
      <path d="M-6.65 10.75 L-8.85 10.45 Q-11.1 9.95 -10.85 9.0 -10.5 8.0 -4.25 1.55 -6.05 -8.25 -5.85 -8.6 L-5.7 -7.8 Q-3.55 1.15 -4.0 1.7 L-7.2 5.2 Q-9.95 8.4 -9.6 9.0 -9.0 10.4 -6.65 10.75" fill="#a9aeb1" fill-rule="evenodd" stroke="none"/>
      <path d="M6.45 1.4 L6.0 2.25 Q2.25 3.65 -1.8 3.15 L-4.05 2.0 -3.7 1.65 -3.35 2.05 Q-2.8 2.5 -1.7 2.55 2.3 2.75 6.45 1.4" fill="#1e1c26" fill-rule="evenodd" stroke="none"/>
      <path d="M-2.35 -10.45 Q-0.55 -11.2 0.0 -3.7 0.4 2.05 -1.55 2.2 -2.8 2.2 -3.45 -3.45 -4.2 -9.6 -2.35 -10.45" fill="#232330" fill-rule="evenodd" stroke="none"/>
      <path d="M-3.1 -3.8 Q-3.35 -9.6 -2.3 -9.45 -2.05 -9.45 -1.55 -7.5 -0.95 -5.35 -0.85 -3.6 -0.75 1.4 -1.75 1.4 -2.1 1.4 -2.6 -0.95 L-3.1 -3.8" fill="#626277" fill-rule="evenodd" stroke="none"/>
      <path d="M-2.3 -9.35 Q-2.05 -8.8 -2.35 -4.95 -2.7 -0.95 -1.75 1.4 -2.85 1.4 -3.1 -3.8 -3.25 -6.2 -2.95 -7.85 L-2.5 -9.25 Q-2.5 -9.75 -2.3 -9.35" fill="#a9aeb1" fill-rule="evenodd" stroke="none"/>
      <path d="M6.9 -6.45 L6.45 0.25 Q6.7 1.25 4.7 1.65 5.7 1.4 5.9 0.45 6.55 -2.95 6.4 -8.35 6.9 -7.8 6.9 -6.45" fill="#3d3d4c" fill-rule="evenodd" stroke="none"/>
      <path d="M6.4 4.4 L6.45 4.45 Q7.15 6.75 6.95 7.3 6.7 8.15 4.55 8.55 6.55 7.3 6.5 6.55 L6.4 4.4" fill="#3d3d4c" fill-rule="evenodd" stroke="none"/>
    </g>
  </defs>
</svg>
